material/.icons/material/car-brake-hold.svg

<svg xmlns="http://www.w3.org/2000/svg" viewBox="0 0 24 24"><path d="M12 3c-5 0-9 4-9 9s4 9 9 9 9-4 9-9-4-9-9-9m0 16c-3.9 0-7-3.1-7-7s3.1-7 7-7 7 3.1 7 7-3.1 7-7 7m8.5 1.5c2.2-2.2 3.5-5.2 3.5-8.5s-1.3-6.3-3.5-8.5l-1.1 1.1c1.9 1.9 3.1 4.5 3.1 7.4 0 2.9-1.2 5.5-3.1 7.4l1.1 1.1M4.6 19.4c-1.9-1.9-3.1-4.5-3.1-7.4 0-2.9 1.2-5.5 3.1-7.4L3.5 3.5C1.3 5.7 0 8.7 0 12s1.3 6.3 3.5 8.5l1.1-1.1M9 7v10h2v-4h2v4h2V7h-2v4h-2V7H9z"/></svg>

<?xml version="1.0" encoding="UTF-8"?><!DOCTYPE svg PUBLIC "-//W3C//DTD SVG 1.1//EN" "http://www.w3.org/Graphics/SVG/1.1/DTD/svg11.dtd"><svg xmlns="http://www.w3.org/2000/svg" xmlns:xlink="http://www.w3.org/1999/xlink" version="1.1" id="mdi-car-brake-hold" width="24" height="24" viewBox="0 0 24 24"><path d="M12,3C7,3 3,7 3,12C3,17 7,21 12,21C17,21 21,17 21,12C21,7 17,3 12,3M12,19C8.1,19 5,15.9 5,12C5,8.1 8.1,5 12,5C15.9,5 19,8.1 19,12C19,15.9 15.9,19 12,19M20.5,20.5C22.7,18.3 24,15.3 24,12C24,8.7 22.7,5.7 20.5,3.5L19.4,4.6C21.3,6.5 22.5,9.1 22.5,12C22.5,14.9 21.3,17.5 19.4,19.4L20.5,20.5M4.6,19.4C2.7,17.5 1.5,14.9 1.5,12C1.5,9.1 2.7,6.5 4.6,4.6L3.5,3.5C1.3,5.7 0,8.7 0,12C0,15.3 1.3,18.3 3.5,20.5L4.6,19.4M9,7V17H11V13H13V17H15V7H13V11H11V7H9Z" /></svg>
